fs/window_wrench_28_regular.svg

<svg viewBox="0 0 28 28" fill="none" xmlns="http://www.w3.org/2000/svg" height="1em" width="1em">
  <path d="M6.75 3C4.67893 3 3 4.67893 3 6.75V21.25C3 23.3211 4.67893 25 6.75 25H13C12.9998 24.4813 13.1333 23.9626 13.4005 23.5H6.75C5.50736 23.5 4.5 22.4926 4.5 21.25V9.5H23.5V13.1014C23.5153 13.1059 23.5305 13.1106 23.5455 13.1156C23.9849 13.2287 24.7394 13.8462 24.9462 14.5H25V6.75C25 4.67893 23.3211 3 21.25 3H6.75ZM23.5 8H4.5V6.75C4.5 5.50736 5.50736 4.5 6.75 4.5H21.25C22.4926 4.5 23.5 5.50736 23.5 6.75V8ZM14.5858 23.5848C14.195 23.9756 13.9998 24.4878 14 25C14.0003 25.5115 14.1955 26.023 14.5858 26.4132C15.3668 27.1943 16.6332 27.1943 17.4142 26.4132L21.0626 22.7656C21.514 22.9176 21.9974 23 22.5 23C24.9853 23 27 20.9853 27 18.5C27 18.2778 26.9839 18.0594 26.9528 17.8459C26.8993 17.4787 26.4579 17.3705 26.1955 17.6329L24.4142 19.4142C23.6332 20.1953 22.3668 20.1953 21.5858 19.4142C20.8047 18.6332 20.8047 17.3668 21.5858 16.5858L23.3671 14.8045C23.6295 14.5421 23.5213 14.1007 23.1541 14.0472C22.9406 14.0161 22.7222 14 22.5 14C20.0147 14 18 16.0147 18 18.5C18 19.0025 18.0824 19.4858 18.2343 19.937L14.5858 23.5848Z" fill="#212121"/>
</svg>

<svg viewBox="0 0 28 28" fill="none" xmlns="http://www.w3.org/2000/svg" height="1em" width="1em">
  <path d="M6.75 3A3.75 3.75 0 0 0 3 6.75v14.5A3.75 3.75 0 0 0 6.75 25H13a3 3 0 0 1 .4-1.5H6.75a2.25 2.25 0 0 1-2.25-2.25V9.5h19v3.601l.046.015c.439.113 1.193.73 1.4 1.384H25V6.75A3.75 3.75 0 0 0 21.25 3H6.75ZM23.5 8h-19V6.75A2.25 2.25 0 0 1 6.75 4.5h14.5a2.25 2.25 0 0 1 2.25 2.25V8Zm-8.914 15.585c-.391.39-.586.903-.586 1.415s.195 1.023.586 1.413a2 2 0 0 0 2.828 0l3.649-3.647a4.5 4.5 0 0 0 5.89-4.92c-.054-.367-.495-.476-.758-.213l-1.78 1.781a2 2 0 1 1-2.83-2.828l1.782-1.781c.262-.263.154-.704-.213-.758a4.5 4.5 0 0 0-4.92 5.89l-3.648 3.648Z" fill="#212121"/>
</svg>
